X: 357
T: The Mantle So Green
M:3/4
L:1/8
B:O'Neill's 357
N:"Tenderly."
N:"collected by Mrs. Fitzgerald."
N:H is a fermata.
Z:Transcribed by Chris Falt, cfalt@trytel.com
K:C
ef | g2 e2 d2 | cd e2 dc | A2 G2 G2 | G4 GA |
c2 c2 d2 | e2 c2 ce | g2 f2 e2 | d4 GA |
c2 c2 d2 | e2 c2 ce | g2 f2 e2 | d4 Ha2 |
g2 e2 d2 | cd e2 dc | A2 G2 G2 | G4 ||


